!!!!SEGMENT: pl-kk--kk-i-133--001_anonim--benedicam-domino.krn
!!!cenid: 16xx:786
!!!COM: Anonim
!!!COM-rismid: pe30004985
!!!CDT:
!!!CNT:
!!!OTL: Benedicam Domino
!!!PDT:
!!!AGN: Sacred
!!!SMS-siglum: PL-Kk
!!!SMS-shelfmark: Kk.I.133
!!!SMS-shelfwork: 001 W
!!!SMS-variant:
!!!SMS-altvar:
!!!NIFC-rismid: 1001144201
!!!URL-scan: http://repozytorium.nifc.pl/skany/pl-kk-nut--i-133
!!!ONB-nifc: UWAGA: źródło to partytura (S,A,T,B) 3 utworów: 1. Benedicam Domino, 2. Deo gratias, 3. Deo gratias (z tytułem pod głosem B „De Confessore”)
**kern	**fba	**kern	**text	**kern	**kern
*part4	*part4	*part3	*part3	*part2	*part1
*staff4	*	*staff3	*staff3	*staff2	*staff1
*I"[Basso]	*	*I"[Tenore]	*	*I"[Alto]	*I"[Canto]
*I'B	*	*I'T	*	*I'A	*I'S
*clefF4	*	*clefC4	*	*clefC3	*clefC1
*k[b-]	*	*k[b-]	*	*k[b-]	*k[b-]
*F:	*	*F:	*	*F:	*F:
*M2/2	*	*M2/2	*	*M2/2	*M2/2
*met(c|)	*	*met(c|)	*	*met(c|)	*met(c|)
=1	=1	=1	=1	=1	=1
!LO:TX:b:t=1.	!	!	!	!	!LO:TX:a:i:t=De Paſsione Domini
[<1F\	.	1F/	Be-	1a\	1cc\
=2	=2	=2	=2	=2	=2
*2\right	*	*	*	*	*
!LO:TX:t=P:problem:2\right:global	!	!	!	!	!
2F\]	2	1G/	.	1g\	1b-X\
2E\	5	.	.	.	.
=3	=3	=3	=3	=3	=3
!	!	!	!	!	!LO:TX:t=P:problem:2\right:global
2F\	.	1A\	-ne-	[<1f\	2a\
2A\	6	.	.	.	2cc\
=4	=4	=4	=4	=4	=4
*	*	*	*	*2\right	*2\right
!	!	!	!	!LO:TX:t=P:problem:2\right:global	!
2B-X\	6 5	1G/	.	2f\]	2dd\
2c\	.	.	.	2e\	[<2cc\
=5	=5	=5	=5	=5	=5
2F\	.	1A\	-di-	1f\	2cc\]
2D\	.	.	.	.	[<2dd\
=6	=6	=6	=6	=6	=6
2G\	2	1B-X\	.	1g\	2dd\]
2E\	6	.	.	.	[<2cc\
=7	=7	=7	=7	=7	=7
2F\	.	1A\	-ca-	[<1f\	2cc\]
2AA/	6	.	.	.	2a\
=8	=8	=8	=8	=8	=8
2BB-/	6 5	1G/	.	2f\]	2dd\
2C/	.	.	.	2e\	[2cc\
=9	=9	=9	=9	=9	=9
2F\	.	1F/	-m(us)	1f\,	2cc\]
2E\	4 2	.	.	.	2ee\
=10	=10	=10	=10	=10	=10
2D\	.	1A\	Do-	2d\	2ff\
2AA/	x 6	.	.	[<2f\	2een\
=11	=11	=11	=11	=11	=11
2BB-/	6 5	1G/	.	2f\]	2dd\
2C/	.	.	.	2e\	[<2cc\
=12	=12	=12	=12	=12	=12
2F\	.	1F/	.	2f\	2cc\]
2B-\	.	.	.	2d\	[2b-\
=13	=13	=13	=13	=13	=13
2G\	6	1E/	.	2B-X/	2b-\]
2A\	.	.	.	2c/	[<2a\
=14	=14	=14	=14	=14	=14
2D\	.	1F/	.	2d\	2a\]
2F\	.	.	.	2a\	2f/
=15	=15	=15	=15	=15	=15
2G\	.	1D/	.	1g\	1b-\
2GG/	.	.	.	.	.
=16	=16	=16	=16	=16	=16
2AA/	6	1F/	.	2f\	2a\
2BB-X/	5	.	.	2f\	2dd\
=17	=17	=17	=17	=17	=17
*^	*	*	*	*	*
!LO:TX:t=P:problem:wydaje się, że nuta 1AA jest tą właściwą	!	!	!	!	!	!
2C/ 2AA/	1AA\	4 2	1E/	.	2g\	1cc\
2E/ 2AA/	.	6	.	.	[2f\	.
*v	*v	*	*	*	*	*
=18	=18	=18	=18	=18	=18
2BB-/	6 5	1G/	.	2f\]	2b-\
2C/	.	.	.	2e\	2g/
=19	=19	=19	=19	=19	=19
2F\	6	1A\	.	1f\	2f/
2A\ [2F\	.	.	.	.	2cc\
=20	=20	=20	=20	=20	=20
2B-\ 2F\]	6	1G/	.	1g\	1dd\
2G\ 2E\	.	.	.	.	.
=21	=21	=21	=21	=21	=21
2c\	.	2.E/	.	2.g\	2.cc\
2C/	.	.	.	.	.
.	.	4E/	-mi-	4g\	4cc\
=22	=22	=22	=22	=22	=22
!LO:TX:t=P:problem:6 taktów pustych do końca systemu	!	!LO:TX:t=P:problem:6 taktów pustych do końca systemu	!	!	!
0F\	.	0F/;	-no.	0f\;	0cc\;
==	==	==	==	==	==
*-	*-	*-	*-	*-	*-
!!!system-decoration: [(s1,s2,s3,s4)]
!!!RDF**kern: > = above
!!!RDF**kern: < = below
!!!RDF**kern: > = above
!!!RDF**kern: < = below
!!!EED: Leszek Kubiak
!!!EST: 2021-02-27
!!!ENC: Andrzej Borzym
!!!END: 2021-02-17
